!!!COM:	Bach, Johann Sebastian
!!!OMV:	Christum wir sollen loben schon
!!!OTL:	Christum wir sollen loben schon
**kern	**fb	**kern	**kern	**kern	**kern
*part5	*part5	*part4	*part3	*part2	*part1
*staff5	*	*staff4	*staff3	*staff2	*staff1
*I"Continuo	*	*I"Voice	*I"Voice	*I"Voice	*I"Voice
*I'Cont.	*	*I'V	*I'V	*I'V	*I'V
*clefF4	*	*clefF4	*clefGv2	*clefG2	*clefG2
*Trd0c0	*	*	*	*	*
*k[f#c#]	*	*k[f#c#]	*k[f#c#]	*k[f#c#]	*k[f#c#]
*M4/4	*	*M4/4	*M4/4	*M4/4	*M4/4
4EE	.	4E	8GL	4B	8eL
.	.	.	8AJ	.	8f#J
=2	=2	=2	=2	=2	=2
4E	.	4E	4B	4e	4g
8EL	.	8EL	4B	4e	4g
8DJ	.	8DJ	.	.	.
4C#	6	4C#	2A	4e	4a
4D#X	6 5	4D#X	.	[4f#	[4b
=3	=3	=3	=3	=3	=3
8EL	9	8EL	8GL	4f#]	4b]
8F#J	.	8F#J	8AJ	.	.
4G	6	4G	4B	4e	4e
4F#	#6\	4F#	4A	4d#X	4a
4E	.	4E	4B	4e	4g
=4	=4	=4	=4	=4	=4
2.BB;	#	2.BB;	2.B;	2.d#X;	2.f#;
4FF#	nr6	4F#	4A	4dn	4a
=5	=5	=5	=5	=5	=5
4EE	5	4E	4e	4g	8bL
.	6	.	.	.	8cc#J
8DDL	.	8DL	[4A	8f#L	[4dd
8EEJ	.	8EJ	.	8gJ	.
8FF#L	.	8F#L	8AL]	4a	4dd]
8GGJ	.	8GJ	8B	.	.
4AA	5	4A	8c#	8eL	4cc#
.	6	.	8dJ	8f#J	.
=6	=6	=6	=6	=6	=6
4EE	.	4E	8eL	4g	4b
.	.	.	8dJ	.	.
4FF#	8	4F#	4c#	8f#L	4a
.	7	.	.	8eJ	.
8GGL	5	8GL	4B	4d	8bL
8AA	.	8A	.	.	8cc#J
8BB	6	8B	4B	4g	4dd
8C#J	.	8c#J	.	.	.
=7	=7	=7	=7	=7	=7
2.D;	.	2.d;	2.A;	2.f#;	2.dd;
8DL	.	8DL	8dL	8f#L	4a
8C#J	6	8C#J	8eJ	8eJ	.
=8	=8	=8	=8	=8	=8
!!linebreak:original
4.BB	.	4.BB	4f#	8dL	8bL
.	.	.	.	8eJ	8cc#J
.	.	.	2B	2f#	2dd
8C#	.	8C#	.	.	.
8DL	6	8DL	.	.	.
8EJ	.	8EJ	.	.	.
4F#	8	4F#	4A	8f#L	4cc#
.	7	.	.	8eJ	.
=9	=9	=9	=9	=9	=9
4G	5 3	4G	8BL	8dL	4b
.	6 4	.	8c#J	8eJ	.
4F#	6	4F#	4d	4f#	4a
4E	5	4E	8GL	4g	8bL
.	6	.	8AJ	.	8cc#J
8BBL	6	8BBL	[4B	8dL	[4dd
8C#J	.	8C#J	.	8eJ	.
=10	=10	=10	=10	=10	=10
8DL	6	8DL	8BL]	2.f#	4dd]
8EJ	.	8EJ	8c#J	.	.
8F#L	6	8F#L	4d	.	8aL
8GJ	.	8GJ	.	.	8gJ
8AL	6	8AL	8c#L	.	8f#L
8BJ	6 #	8BJ	8d#XJ	.	8gJ
4cn	6	4cn	4e	4e	4a
=11	=11	=11	=11	=11	=11
2.B;	#	2.B;	2.d#X;	2.f#;	2.b;
8GL	6	8GL	4B	8eL	8eL
8F#J	#6\	8F#J	.	8d#XJ	8f#J
=12	=12	=12	=12	=12	=12
4E	.	4E	4B	8eL	4g
.	.	.	.	8f#J	.
4E	.	4E	8BL	4g	8gL
.	.	.	8cnJ	.	8aJ
8DL	6	8DL	8dnL	8f#L	8bL
8CnJ	.	8CnJ	8eJ	8eJ	8ccnJ
8BBL	5	8BBL	4f#	8dL	[4dd
8AAJ	.	8AAJ	.	8cnJ	.
=13	=13	=13	=13	=13	=13
!!pagebreak:original
8GGL	.	8GGL	4g	8BL	4dd]
8AA	.	8AA	.	8cnJ	.
8BB	6	8BB	4G	8dL	4b
8CnJ	.	8CnJ	.	8eJ	.
4.D	.	4.D	8dL	4.f#	8aL
.	.	.	8eJ	.	8g
.	.	.	[4f#	.	8f#
8C	.	8C	.	8e	8gJ
=14	=14	=14	=14	=14	=14
4BB	7 #	4BB	4f#]	4d#X	4a
8C#L	nr5	8C#L	8eL	[4e	4g
8BBJ	.	8BBJ	8dJ	.	.
2AA#X	6 5	2AA#X	4c#	4e]	[2f#
.	.	.	4F#	8dnL	.
.	.	.	.	8c#J	.
=15	=15	=15	=15	=15	=15
8BBL	.	8BBL	8BL	8dL	1f#_
8C#J	.	8C#J	8F#J	8eJ	.
8DL	6	8DL	[4B	2f#	.
8EJ	.	8EJ	.	.	.
4.F#	8 4	4.F#	8BL]	.	.
.	#	.	8A#XJ	.	.
.	#2| 4	.	8BL	8g#XL	.
8E	#4| 6	8E	8c#J	8a#XJ	.
=16	=16	=16	=16	=16	=16
8DL	6	8DL	[1d	[1b	1f#_
8C#	.	8C#	.	.	.
8BB	.	8BB	.	.	.
8AA#XJ	.	8AA#XJ	.	.	.
8BBL	.	8BBL	.	.	.
8D	.	8D	.	.	.
8C#	.	8C#	.	.	.
8BBJ	.	8BBJ	.	.	.
=17	=17	=17	=17	=17	=17
!!linebreak:original
2F#	6 4	1F#;	4d]	4b]	1f#;]
.	5	.	8c#L	8a#XL	.
.	4 #2|	.	8BJ	8g#XJ	.
2FF#;	5 #	.	2c#;	2a#;	.
=||	=||	=||	=||	=||	=||
*-	*-	*-	*-	*-	*-
!!!system-decoration: s1,s2,s3,s4,s5
